svgs/regular/taco.svg

<svg xmlns="http://www.w3.org/2000/svg" viewBox="0 0 512 512"><!-- Font Awesome Pro 6.0.0-alpha2 by @fontawesome - https://fontawesome.com License - https://fontawesome.com/license (Commercial License) --><path d="M208 280C194.687 280 184 290.688 184 304S194.687 328 208 328S232 317.312 232 304S221.313 280 208 280ZM144 344C130.687 344 120 354.687 120 368C120 381.312 130.687 392 144 392S168 381.312 168 368C168 354.687 157.312 344 144 344ZM511.503 407.625C508.753 386.5 503.878 365.625 496.878 345.5C499.628 338.375 501.003 330.875 501.003 323.25C501.003 313.75 501.628 305 504.253 295.625C509.628 277.125 516.878 252.125 507.253 226C494.253 190.375 459.378 177.25 447.377 167.875C442.127 151.5 441.002 112.75 412.252 89.25C385.127 67.25 356.127 74.125 330.501 73.875C316.626 62.75 293.751 32 257.376 32C219.751 32 192.75 64.875 181.5 73.875C164.75 74 128.875 65.5 99.75 89.25C70.749 113 69.999 151.75 64.374 168C51.874 177.5 17.499 190.625 4.624 226C-4.876 252 2.374 277.125 7.624 295.375C10.374 304.75 10.999 313.625 10.999 323.125C10.999 330.75 12.499 338.375 15.249 345.5C8.249 365.625 3.249 386.5 0.499 407.625C-3.876 442.625 20.999 480 60.499 480H451.502C491.003 480 515.878 442.625 511.503 407.625ZM451.502 432H60.499C51.874 432 47.124 421.5 48.124 413.625C62.874 296.375 152.25 208 256.001 208S449.127 296.375 463.878 413.625C464.878 421.625 459.878 432 451.502 432Z"/></svg>

<svg xmlns="http://www.w3.org/2000/svg" viewBox="0 0 512 512"><!-- Font Awesome Pro 5.15.1 by @fontawesome - https://fontawesome.com License - https://fontawesome.com/license (Commercial License) --><path d="M208 288a16 16 0 1 0 16 16 16 16 0 0 0-16-16zm-64 64a16 16 0 1 0 16 16 16 16 0 0 0-16-16zm367.45 55.64a309.9 309.9 0 0 0-14.63-62.14 62.39 62.39 0 0 0 4.18-22.3c0-9.39.62-18.25 3.3-27.59 5.32-18.45 12.55-43.48 3-69.58-13-35.67-47.92-48.78-59.91-58.14-5.26-16.34-6.42-55.1-35.2-78.59-27.05-22.08-56.11-15.17-81.75-15.4C316.57 62.73 293.75 32 257.42 32c-37.66 0-64.67 32.84-75.88 41.86-16.77.15-52.72-8.3-81.75 15.4S70 151.77 64.37 168c-12.55 9.54-46.82 22.64-59.71 58-9.54 26.06-2.32 51.08 3 69.35 2.7 9.4 3.35 18.22 3.35 27.77a62.13 62.13 0 0 0 4.22 22.33A309.26 309.26 0 0 0 .55 407.64C-3.84 442.59 21 480 60.5 480h391c39.5 0 64.36-37.34 59.96-72.36zM451.51 432H60.5c-8.57 0-13.32-10.45-12.33-18.38C62.89 296.4 152.24 208 256 208s193.12 88.4 207.84 205.62c1 8-3.91 18.38-12.33 18.38z"/></svg>
